X: 10166
T: Dinkey's
R: reel
M: 4/4
K: Amixolydian
|:c2Bc ABcd|egfd edBd|gB~B2 gBaB|gB~B2 gfed|
c2Bc ABcd|egfd edBd|g2ge fedA|1 BA^GB A2ed:|2 BA^GB A2e^g||
aA~A2 aAbA|aA~A2 agef|gB~B2 gBaB|gB~B2 gefg|
aA~A2 aAbA|aA~A2 agef|g2ge fedA|BA^GB A2e^g|
aA~A2 aAbA|aA~A2 agef|gB~B2 gBaB|gB~B2 gefg|
aA~A2 gA~A2|fA~A2 e2ef|g2ge fedA|BA^GB A2ed||

